X:8011
T:Jimmy Allen
C:Trad
S:Unknown, photocopy from John Wilson
I:speed 250
M:2/4
K:G
|:B2G2 G2A2 | BcBA G2AB | c2A2 A2B2| c4 B2A2 |
G2g2 g2e2 | d4 B3c | d2d2 cBA2 | G4 G4:|
|:G2g2 g3f | e2d2 c2B2 | A2a2 a3g | f2d2 e2f2 |
g3a g2e2 | d4 B3c | d2d2 cBA2 | G4G4:|
